X:38
T:Braes of Yarrow,The. JClw.38
M:6/8
L:1/8
Q:1/4=100
S:J.Clews MS,Stoke-upon-Tern,Shrops.1832
A:N. Shropshire
Z:Neil Brookes 2006
K:C
G|c>dc e2g|a>bc' gec|d>ed fda|d>ed fda|!
c>dc e2g|a>bc' gec|GAG Gce|fdB c2 e/f/|!
g>ag gec|g>ag gec|dBG dBg|A3G2 e/f/|g>ag gfe|!
faf d2 d/e/|f>gf fed|dgd c2G|ABc dgd|c3B2e/f|!
gc'a g2f|egc'g2f|egc'g2f|egG A2B|c2dc2e/f/|gec gec|A2BA2f/g/!
afd afd|B2Hcd2e/f/|gc'a g2f|egc' g2f|egc' gec|Td3 c3|]

